application/themes/proConsult/dist/images/1.svg

<svg width="30" height="30" viewBox="0 0 30 30" fill="none" xmlns="http://www.w3.org/2000/svg">
<circle cx="15" cy="15" r="15" fill="#263790" fill-opacity="0.2"/>
<path d="M15.2941 7.02734C10.7532 7.02734 7.05884 10.6544 7.05884 15.1125C7.05884 19.5705 10.7532 23.1976 15.2941 23.1976C19.835 23.1976 23.5294 19.5705 23.5294 15.1125C23.5294 10.6544 19.835 7.02734 15.2941 7.02734ZM19.58 12.4028L14.2588 18.6221C14.2004 18.6903 14.1278 18.7455 14.0458 18.7838C13.9638 18.8221 13.8744 18.8426 13.7837 18.844H13.773C13.6842 18.844 13.5964 18.8257 13.5153 18.7902C13.4342 18.7547 13.3616 18.7028 13.3022 18.638L11.0217 16.1503C10.9638 16.09 10.9187 16.0189 10.8892 15.9413C10.8596 15.8636 10.8462 15.781 10.8496 15.6981C10.8531 15.6153 10.8734 15.534 10.9093 15.459C10.9453 15.384 10.9961 15.3168 11.0588 15.2614C11.1216 15.2059 11.195 15.1633 11.2748 15.1361C11.3545 15.109 11.439 15.0977 11.5233 15.103C11.6075 15.1083 11.6898 15.1301 11.7654 15.1671C11.8409 15.2041 11.9082 15.2556 11.9632 15.3185L13.7563 17.2744L18.61 11.6028C18.7189 11.4792 18.8729 11.4027 19.0388 11.3897C19.2047 11.3767 19.3692 11.4284 19.4966 11.5335C19.624 11.6385 19.7042 11.7887 19.7198 11.9513C19.7355 12.114 19.6852 12.2762 19.58 12.4028Z" fill="#263790"/>
</svg>

<svg width="30" height="30" fill="none" xmlns="http://www.w3.org/2000/svg"><circle cx="15" cy="15" r="15" fill="#263790" fill-opacity=".2"/><path d="M15.294 7.027c-4.54 0-8.235 3.627-8.235 8.086 0 4.457 3.694 8.085 8.235 8.085 4.541 0 8.235-3.628 8.235-8.085 0-4.459-3.694-8.086-8.235-8.086zm4.286 5.376l-5.321 6.22a.633.633 0 0 1-.475.221h-.011a.643.643 0 0 1-.47-.206l-2.281-2.488a.62.62 0 0 1-.172-.452.614.614 0 0 1 .209-.437.636.636 0 0 1 .464-.158.643.643 0 0 1 .44.216l1.793 1.955 4.854-5.671a.638.638 0 0 1 .887-.07.618.618 0 0 1 .083.87z" fill="#263790"/></svg>
